!!!SOCIAL_FUNCTION:	songs of social dance
!!!PDT:	1936
!!!OTL: No_61_Song_of_Rabbit_Dance_(b).krn
!!!REG: Oklahoma and Montana
!!!LANG: Tone
!!!LING_GROUP: Algonquin
**kern	**kern
*staff2	*staff1
=1-	=1-
*clefF4	*clefF4
*k[b-e-a-d-]	*k[b-e-a-d-]
*M2/4	*M2/4
12GG/	4r
12r	.
12GG/	.
12GG/	8A-\L
12r	.
.	8A-\J
12GG/	.
=2	=2
2r	8e-\L
.	8e-\J
.	4e-\
=3	=3
2r	16e-\
.	16r
.	8c\
.	16c\
.	16r
.	8B-\
=4	=4
*M3/4	*M3/4
2.r	(16c\LL
.	16A-\J)
.	8A-\J
.	8A-\
.	8r
.	8A-\L
.	8A-\J
=5	=5
*M2/4	*M2/4
2r	8e-\L
.	8e-\J
.	4e-\
=6!|:	=6!|:
2r	16e-\
.	16r
.	8c\
.	16c\
.	16r
.	8B-\
=7	=7
2r	16e-\
.	16r
.	8A-\
.	16A-\LL
.	16A-\J
.	8F\J
=8	=8
2r	16E-\LK
.	8.E-\J
.	8C/L
.	8E-/J
=9	=9
2r	8E-\L
.	8E-\J
.	8E-\
.	8r
=10	=10
2r	4A-\
.	16A-\LL
.	16F\J
.	8F\J
=11	=11
2r	16E-\LK
.	8.E-\J
.	8C/L
.	8E-/J
=12	=12
2r	8E-\L
.	8E-\J
.	8E-\
.	8r
=13	=13
2r	16F\LK
.	8.E-\J
.	4E-\
=14	=14
2r	16F\LK
.	8.E-\J
.	4E-\
=15	=15
2r	16E-\LK
.	8.E-\J
.	4r
==:|!	==:|!
*-	*-
